X:1
T:Title
%%score { ( 1 3 ) | ( 2 4 ) }
L:1/8
M:3/4
K:Bb
V:1 treble nm="Grand Piano"
V:3 treble 
V:2 bass 
V:4 bass 
V:1
 z2 z2 z[Q:1/4=100] [DF] | [DF]>[EG] [DB]3 [DG] | [DF]>[EG] [DB]3 [DB] | [EA]>[FB] [Fc]3 [Fc] | %4
[M:5/8] [=Ed]>[Ec] [Fc]3 |[M:1/8] [EF] |[M:3/4] [DF]>[EG] [DB]3 [DG] | [DF]>[EG] [DB]3 [Fd] | %8
 c>c c3 c |[M:17/32] [=Ec]/4-[Ec]/4-[Ec]/-<[Ec]/E/F/4-F/4-F/4-F/4-F/4-F/-<F/ | %10
[M:4/4][Q:1/4=104] z4 (5:4:5A/A/-A3/2 A/ A2 | (5:4:5F/F/-F3/2 F/ d2- d4- | %12
 (3d/[Fd]/- [Fd]2- [Fd]/-[=E-Fc-d]/4[Ec]/4-[Ec]- (3[Ec]2 [EG]2 [EA]2- | %13
 (3[EA]/[=EB]/- [EB]2- [EB]3/4 z/4 z (3=B/c/- c2- c2- | %14
 (3c/F/- F2- F3/4 z/4 z (5:4:6[EG]/[DB]/-[DB]- [DB]2- [DB]/[Ec]/- | %15
 (5:4:4[Ec]/[Fd]3/2[_Af] [Ge]2- [Ge]4 | %16
[M:17/16] (9:8:21B/-B/32B/-B-B3/32c/-c/32d/-d-d3/32-[B,d]-[B,d-]/16[B,d]-[B,d]/-[B,d-]3/32[B,d]/-[B,d-]/32[B,d]-[B,d]/16F- F/16 | %17
[M:7/8] c3/2-c/4 z/4 z z z z2 | z7 |] %19
V:2
 z2 z2 z [B,,B,] | [B,,B,]>[B,,B,] [B,,F,]3 [B,,B,] | [B,,B,]>[B,,B,] [B,,F,]3 [B,,F,] | %3
 [C,F,]>[D,B,] [F,A,]3 [F,A,] |[M:5/8] [C,B,]>[C,B,] [F,A,]3 |[M:1/8] [F,A,] | %6
[M:3/4] [B,,B,]>[B,,B,] [B,,F,]3 [B,,B,] | [B,,B,]>[B,,B,] [B,,F,]3 [B,,B,] | %8
 [F,A,F]>[G,B,=E] [A,CF]3[K:bass] [F,A,F] | %9
[M:17/32] [C,G,]/4-[C,G,]/4-[C,G,]/-<[C,G,]/[C,B,C]/[F,A,C]/4-[F,A,C]/4-[F,A,C]/4-[F,A,C]/4-[F,A,C]/4-[F,A,C]/-<[F,A,C]/- | %10
[M:4/4] [F,A,C]3/4 z/4 z z2 (5:4:5[F,C]/[F,C]/-[F,C]3/2 [F,C]/ [F,C]2 | z8 | z8 | %13
 z2 z/ [F,A,F]3/2- [F,A,F]/4 z/4 z/ z z2 | z2 z/ [B,,B,]3/2- [B,,B,]/4 z/4 z/ z z2 | z8 | %16
[M:17/16][K:treble] (9:8:21G/-G/32G/-G-G3/32G/-G/32F/-F-F3/32-[F,F]-[F,F-]/16[F,F]-[F,F]/-[F,F-]3/32[F,F]/-[F,F-]/32[F,F]-[F,F]/16[K:bass][F,B,D]- [F,B,D]/16 | %17
[M:7/8] [A,E]3/2-[A,D-E]/4D/4-D/-[B,,-F,-D]/4[B,,F,]/4- [B,,F,]- [B,,F,]3- | %18
 [B,,F,]2- [B,,F,]3/4 z/4 z z z2 |] %19
V:3
 x6 | x6 | x6 | x6 |[M:5/8] x5 |[M:1/8] x |[M:3/4] x6 | x6 | x6 |[M:17/32] x17/4 | %10
[M:4/4] (5:4:5F/F/-F3/2 F/ e2- e4 | z4 (5:4:5F/F/-F3/2 F/ F2- | F3/4 z/4 z z2 z4 | %13
 z2 z/ c3/2- c/4 z/4 z/ z z2 | z2 z/ [DF]3/2- [DF]/4 z/4 z/ z z2 | x8 |[M:17/16] x8 | %17
[M:7/8] z z/ B[DB]/- [DB]- [DB]3- | [DB]2- [DB]3/4 z/4 z z z2 |] %19
V:4
 x6 | x6 | x6 | x6 |[M:5/8] x5 |[M:1/8] x |[M:3/4] x6 | x6 | x5[K:bass] x |[M:17/32] x17/4 | %10
[M:4/4] x8 | z4 (5:4:5[B,,B,]/[D,B,]/-[D,B,]3/2 [F,B,]/ [B,,B,]2- | %12
 (3[B,,B,]/[B,,B,]/- [B,,B,]2- [B,,-B,]/[B,,C,-B,-]/4[C,B,]/4-[C,B,]- (3[C,B,]2 [C,C]2 [C,C]2- | %13
 (3[C,C]/[C,G,]/- [C,G,]2- [C,G,]3/4 z/4 z (3[F,_A,F]/[F,=A,F]/- [F,A,F]2- [F,A,F]2- | %14
 (3[F,A,F]/[F,A,E]/- [F,A,E]2- [F,A,E]3/4 z/4 z (5:4:6[B,,B,]/[B,,F,]/-[B,,F,]- [B,,F,]2- [B,,F,]/[B,,F,]/- | %15
 (5:4:4[B,,F,]/[B,,B,]3/2[D,B,] [E,B,]2- [E,B,]4 |[M:17/16][K:treble] x7[K:bass] x | %17
[M:7/8] F,3/2.F,3/2 z z z2 | x7 |] %19

